cached_logos/cache-cash.svg

<svg xmlns="http://www.w3.org/2000/svg" role="img" xmlns:xlink="http://www.w3.org/1999/xlink" viewBox="-3.38 0.12 318.76 56.51"><title>CacheCash logo</title><defs><g id="glyph-0-0"><path d="M 35.273438 -15.058594 L 40.957031 -13.625 C 39.765625 -8.957031 37.621094 -5.394531 34.527344 -2.945312 C 31.429688 -0.492188 27.648438 0.734375 23.171875 0.734375 C 18.542969 0.734375 14.78125 -0.210938 11.878906 -2.09375 C 8.980469 -3.980469 6.773438 -6.710938 5.257812 -10.28125 C 3.746094 -13.855469 2.988281 -17.695312 2.988281 -21.796875 C 2.988281 -26.269531 3.84375 -30.171875 5.550781 -33.5 C 7.261719 -36.832031 9.691406 -39.359375 12.847656 -41.089844 C 16 -42.816406 19.472656 -43.679688 23.261719 -43.679688 C 27.558594 -43.679688 31.171875 -42.585938 34.101562 -40.398438 C 37.03125 -38.210938 39.070312 -35.136719 40.226562 -31.171875 L 34.628906 -29.851562 C 33.632812 -32.976562 32.1875 -35.253906 30.292969 -36.679688 C 28.398438 -38.105469 26.015625 -38.820312 23.144531 -38.820312 C 19.84375 -38.820312 17.085938 -38.027344 14.867188 -36.445312 C 12.652344 -34.863281 11.09375 -32.738281 10.195312 -30.074219 C 9.296875 -27.40625 8.847656 -24.65625 8.847656 -21.828125 C 8.847656 -18.175781 9.378906 -14.984375 10.445312 -12.261719 C 11.507812 -9.535156 13.164062 -7.5 15.410156 -6.152344 C 17.65625 -4.804688 20.085938 -4.132812 22.703125 -4.132812 C 25.886719 -4.132812 28.585938 -5.046875 30.789062 -6.882812 C 32.996094 -8.71875 34.492188 -11.445312 35.273438 -15.058594 Z M 35.273438 -15.058594"/></g><g id="glyph-0-1"><path d="M 24.257812 -3.835938 C 22.304688 -2.175781 20.425781 -1.007812 18.617188 -0.320312 C 16.8125 0.363281 14.875 0.703125 12.804688 0.703125 C 9.386719 0.703125 6.757812 -0.132812 4.921875 -1.800781 C 3.085938 -3.472656 2.167969 -5.605469 2.167969 -8.203125 C 2.167969 -9.726562 2.515625 -11.117188 3.207031 -12.378906 C 3.902344 -13.636719 4.808594 -14.648438 5.933594 -15.410156 C 7.054688 -16.171875 8.320312 -16.75 9.726562 -17.140625 C 10.761719 -17.414062 12.324219 -17.675781 14.414062 -17.929688 C 18.671875 -18.4375 21.804688 -19.042969 23.820312 -19.746094 C 23.839844 -20.46875 23.847656 -20.929688 23.847656 -21.125 C 23.847656 -23.273438 23.351562 -24.785156 22.351562 -25.664062 C 21.003906 -26.855469 19.003906 -27.453125 16.347656 -27.453125 C 13.867188 -27.453125 12.035156 -27.015625 10.855469 -26.148438 C 9.671875 -25.277344 8.796875 -23.742188 8.234375 -21.53125 L 3.078125 -22.234375 C 3.546875 -24.441406 4.316406 -26.226562 5.390625 -27.582031 C 6.464844 -28.941406 8.015625 -29.984375 10.046875 -30.71875 C 12.078125 -31.449219 14.433594 -31.816406 17.109375 -31.816406 C 19.765625 -31.816406 21.921875 -31.503906 23.585938 -30.878906 C 25.246094 -30.253906 26.464844 -29.46875 27.246094 -28.519531 C 28.027344 -27.574219 28.574219 -26.375 28.886719 -24.929688 C 29.0625 -24.03125 29.148438 -22.414062 29.148438 -20.070312 L 29.148438 -13.039062 C 29.148438 -8.136719 29.261719 -5.035156 29.488281 -3.734375 C 29.710938 -2.4375 30.15625 -1.191406 30.820312 0 L 25.3125 0 C 24.765625 -1.09375 24.414062 -2.375 24.257812 -3.835938 Z M 23.820312 -15.617188 C 21.90625 -14.835938 19.03125 -14.171875 15.203125 -13.625 C 13.035156 -13.3125 11.503906 -12.960938 10.605469 -12.570312 C 9.707031 -12.179688 9.015625 -11.605469 8.523438 -10.855469 C 8.035156 -10.101562 7.792969 -9.265625 7.792969 -8.351562 C 7.792969 -6.945312 8.324219 -5.773438 9.390625 -4.835938 C 10.453125 -3.898438 12.011719 -3.429688 14.0625 -3.429688 C 16.09375 -3.429688 17.898438 -3.871094 19.484375 -4.761719 C 21.066406 -5.648438 22.226562 -6.867188 22.96875 -8.40625 C 23.535156 -9.597656 23.820312 -11.359375 23.820312 -13.679688 Z M 23.820312 -15.617188"/></g><g id="glyph-0-2"><path d="M 24.257812 -11.398438 L 29.445312 -10.722656 C 28.878906 -7.148438 27.425781 -4.351562 25.09375 -2.328125 C 22.757812 -0.308594 19.890625 0.703125 16.492188 0.703125 C 12.234375 0.703125 8.8125 -0.6875 6.226562 -3.472656 C 3.636719 -6.253906 2.34375 -10.242188 2.34375 -15.4375 C 2.34375 -18.796875 2.898438 -21.738281 4.015625 -24.257812 C 5.128906 -26.777344 6.820312 -28.667969 9.097656 -29.925781 C 11.371094 -31.1875 13.847656 -31.816406 16.523438 -31.816406 C 19.902344 -31.816406 22.664062 -30.960938 24.8125 -29.253906 C 26.960938 -27.542969 28.339844 -25.117188 28.945312 -21.972656 L 23.820312 -21.179688 C 23.332031 -23.269531 22.464844 -24.84375 21.226562 -25.898438 C 19.984375 -26.953125 18.484375 -27.480469 16.726562 -27.480469 C 14.070312 -27.480469 11.914062 -26.527344 10.253906 -24.625 C 8.59375 -22.71875 7.765625 -19.707031 7.765625 -15.585938 C 7.765625 -11.40625 8.5625 -8.367188 10.164062 -6.476562 C 11.765625 -4.582031 13.859375 -3.632812 16.4375 -3.632812 C 18.507812 -3.632812 20.234375 -4.265625 21.621094 -5.539062 C 23.007812 -6.808594 23.886719 -8.757812 24.257812 -11.398438 Z M 24.257812 -11.398438"/></g><g id="glyph-0-3"><path d="M 3.953125 0 L 3.953125 -42.949219 L 9.226562 -42.949219 L 9.226562 -27.539062 C 11.6875 -30.390625 14.796875 -31.816406 18.546875 -31.816406 C 20.851562 -31.816406 22.851562 -31.363281 24.550781 -30.453125 C 26.25 -29.546875 27.464844 -28.289062 28.199219 -26.6875 C 28.929688 -25.085938 29.296875 -22.765625 29.296875 -19.71875 L 29.296875 0 L 24.023438 0 L 24.023438 -19.71875 C 24.023438 -22.355469 23.453125 -24.273438 22.308594 -25.472656 C 21.167969 -26.675781 19.550781 -27.273438 17.460938 -27.273438 C 15.898438 -27.273438 14.429688 -26.871094 13.050781 -26.058594 C 11.675781 -25.25 10.695312 -24.148438 10.109375 -22.765625 C 9.523438 -21.378906 9.226562 -19.460938 9.226562 -17.023438 L 9.226562 0 Z M 3.953125 0"/></g><g id="glyph-0-4"><path d="M 25.253906 -10.019531 L 30.703125 -9.34375 C 29.84375 -6.160156 28.25 -3.691406 25.929688 -1.933594 C 23.605469 -0.175781 20.632812 0.703125 17.023438 0.703125 C 12.472656 0.703125 8.863281 -0.699219 6.195312 -3.5 C 3.53125 -6.304688 2.195312 -10.234375 2.195312 -15.292969 C 2.195312 -20.527344 3.546875 -24.589844 6.242188 -27.480469 C 8.9375 -30.371094 12.429688 -31.816406 16.726562 -31.816406 C 20.886719 -31.816406 24.289062 -30.398438 26.921875 -27.570312 C 29.558594 -24.738281 30.878906 -20.75 30.878906 -15.617188 C 30.878906 -15.304688 30.867188 -14.835938 30.851562 -14.210938 L 7.648438 -14.210938 C 7.84375 -10.792969 8.808594 -8.171875 10.546875 -6.359375 C 12.285156 -4.542969 14.453125 -3.632812 17.050781 -3.632812 C 18.984375 -3.632812 20.632812 -4.140625 22 -5.15625 C 23.367188 -6.171875 24.453125 -7.792969 25.253906 -10.019531 Z M 7.9375 -18.546875 L 25.3125 -18.546875 C 25.078125 -21.164062 24.414062 -23.125 23.320312 -24.433594 C 21.640625 -26.464844 19.460938 -27.480469 16.789062 -27.480469 C 14.367188 -27.480469 12.328125 -26.671875 10.679688 -25.046875 C 9.027344 -23.425781 8.117188 -21.257812 7.9375 -18.546875 Z M 7.9375 -18.546875"/></g><g id="glyph-0-5"><path d="M 1.84375 -9.289062 L 7.0625 -10.109375 C 7.355469 -8.019531 8.167969 -6.414062 9.507812 -5.304688 C 10.84375 -4.191406 12.714844 -3.632812 15.117188 -3.632812 C 17.539062 -3.632812 19.335938 -4.125 20.507812 -5.113281 C 21.679688 -6.097656 22.265625 -7.257812 22.265625 -8.585938 C 22.265625 -9.777344 21.75 -10.710938 20.710938 -11.398438 C 19.988281 -11.867188 18.195312 -12.460938 15.320312 -13.183594 C 11.453125 -14.160156 8.773438 -15.003906 7.28125 -15.71875 C 5.785156 -16.429688 4.652344 -17.417969 3.882812 -18.675781 C 3.109375 -19.9375 2.726562 -21.328125 2.726562 -22.851562 C 2.726562 -24.238281 3.042969 -25.523438 3.675781 -26.703125 C 4.3125 -27.886719 5.175781 -28.867188 6.269531 -29.648438 C 7.089844 -30.253906 8.207031 -30.765625 9.625 -31.1875 C 11.039062 -31.605469 12.558594 -31.816406 14.179688 -31.816406 C 16.621094 -31.816406 18.765625 -31.464844 20.609375 -30.761719 C 22.457031 -30.058594 23.820312 -29.105469 24.695312 -27.90625 C 25.574219 -26.703125 26.179688 -25.097656 26.515625 -23.085938 L 21.359375 -22.382812 C 21.125 -23.984375 20.445312 -25.234375 19.320312 -26.132812 C 18.199219 -27.03125 16.609375 -27.480469 14.5625 -27.480469 C 12.140625 -27.480469 10.410156 -27.078125 9.375 -26.28125 C 8.339844 -25.480469 7.820312 -24.539062 7.820312 -23.46875 C 7.820312 -22.785156 8.039062 -22.167969 8.46875 -21.621094 C 8.898438 -21.054688 9.570312 -20.585938 10.488281 -20.214844 C 11.015625 -20.019531 12.570312 -19.570312 15.148438 -18.867188 C 18.878906 -17.871094 21.480469 -17.054688 22.953125 -16.421875 C 24.429688 -15.785156 25.585938 -14.863281 26.425781 -13.652344 C 27.265625 -12.441406 27.6875 -10.9375 27.6875 -9.140625 C 27.6875 -7.382812 27.171875 -5.726562 26.148438 -4.175781 C 25.121094 -2.621094 23.640625 -1.421875 21.710938 -0.570312 C 19.777344 0.277344 17.585938 0.703125 15.148438 0.703125 C 11.105469 0.703125 8.023438 -0.136719 5.902344 -1.816406 C 3.785156 -3.496094 2.429688 -5.984375 1.84375 -9.289062 Z M 1.84375 -9.289062"/></g></defs><g><use y="50" xlink:href="#glyph-0-0"/><use x="43.33" y="50" xlink:href="#glyph-0-1"/><use x="76.699" y="50" xlink:href="#glyph-0-2"/><use x="106.699" y="50" xlink:href="#glyph-0-3"/><use x="140.068" y="50" xlink:href="#glyph-0-4"/><use x="173.438" y="50" xlink:href="#glyph-0-0"/><use x="216.768" y="50" xlink:href="#glyph-0-1"/><use x="250.137" y="50" xlink:href="#glyph-0-5"/><use x="280.137" y="50" xlink:href="#glyph-0-3"/></g></svg>

<svg xmlns="http://www.w3.org/2000/svg" role="img" xmlns:xlink="http://www.w3.org/1999/xlink" viewBox="-3.38 0.12 318.76 56.51"><title>CacheCash logo</title><defs><path d="M35.27344-15.0586l5.6836 1.4336c-1.19141 4.66797-3.33595 8.23047-6.4297 10.67969C31.4297-.4922 27.64844.73438 23.17187.73438c-4.6289 0-8.39062-.94532-11.29296-2.82813-2.89844-1.88672-5.10547-4.61719-6.6211-8.1875-1.51172-3.57422-2.26953-7.41406-2.26953-11.51563 0-4.47265.85547-8.375 2.5625-11.70312 1.71094-3.33203 4.14063-5.85938 7.29688-7.58984C16-42.81641 19.47266-43.6797 23.26172-43.6797c4.29687 0 7.91015 1.09375 10.83984 3.28125 2.92969 2.1875 4.96875 5.26172 6.125 9.22657l-5.59765 1.3203c-.9961-3.125-2.44141-5.40234-4.33594-6.82812-1.89453-1.42578-4.27735-2.14062-7.14844-2.14062-3.30078 0-6.0586.79297-8.27734 2.375-2.21485 1.58203-3.77344 3.70703-4.67188 6.3711-.89843 2.66796-1.34765 5.41796-1.34765 8.24609 0 3.65234.53125 6.84374 1.59765 9.5664 1.0625 2.72656 2.71875 4.76172 4.96485 6.10938 2.24609 1.34765 4.67578 2.01953 7.29297 2.01953 3.18359 0 5.8828-.91406 8.08593-2.75 2.20703-1.83594 3.70313-4.5625 4.48438-8.17578zm0 0" id="a"/><path d="M24.25781-3.83594C22.3047-2.17578 20.42578-1.0078 18.6172-.3203 16.8125.36329 14.875.70313 12.80469.70313c-3.41797 0-6.04688-.83594-7.88282-2.50391-1.83593-1.67188-2.7539-3.80469-2.7539-6.40235 0-1.52343.34766-2.91406 1.03906-4.17578.69531-1.2578 1.60156-2.26953 2.72656-3.03125 1.1211-.76172 2.38672-1.33984 3.79297-1.73047 1.03516-.27343 2.59766-.53515 4.6875-.78906 4.25782-.50781 7.39063-1.11328 9.40625-1.8164.01953-.72266.02735-1.1836.02735-1.37891 0-2.14844-.4961-3.66016-1.4961-4.53906-1.34765-1.1914-3.34765-1.78907-6.0039-1.78907-2.48047 0-4.3125.4375-5.4922 1.3047-1.18359.87109-2.05859 2.40624-2.62109 4.61718l-5.15625-.70313c.46875-2.20703 1.23829-3.99218 2.3125-5.34765 1.07422-1.35938 2.625-2.40235 4.65625-3.13672 2.03125-.73047 4.38672-1.09766 7.0625-1.09766 2.65626 0 4.8125.3125 6.47657.9375 1.66015.625 2.8789 1.41016 3.66015 2.35938.78125.94531 1.32813 2.14453 1.64063 3.58984.17578.89844.26172 2.51563.26172 4.85938v7.03125c0 4.90234.11328 8.0039.33984 9.30468C29.71094-2.4375 30.15625-1.1914 30.82031 0H25.3125c-.54688-1.09375-.89844-2.375-1.05469-3.83594zm-.4375-11.78125c-1.91406.78125-4.78906 1.44532-8.61718 1.99219-2.16797.3125-3.69922.66406-4.59766 1.05469-.89844.39062-1.58985.96484-2.08203 1.71484-.48828.7539-.73047 1.58985-.73047 2.5039 0 1.40626.53125 2.57813 1.59765 3.51563 1.0625.9375 2.6211 1.40625 4.67188 1.40625 2.03125 0 3.83594-.4414 5.42188-1.33203 1.58203-.88672 2.74218-2.10547 3.48437-3.64453.5664-1.1914.85156-2.95313.85156-5.27344zm0 0" id="b"/><path d="M24.25781-11.39844l5.1875.67578c-.5664 3.57422-2.01953 6.3711-4.35156 8.39453C22.75781-.30858 19.89062.70313 16.49219.70313c-4.25782 0-7.67969-1.39062-10.26563-4.17578C3.63672-6.2539 2.34375-10.24219 2.34375-15.4375c0-3.35938.55469-6.30078 1.67188-8.82031 1.11328-2.51953 2.80468-4.41016 5.08203-5.66797 2.27343-1.26172 4.75-1.89063 7.42578-1.89063 3.3789 0 6.14062.85547 8.28906 2.5625 2.14844 1.71094 3.52734 4.13672 4.13281 7.28125l-5.125.79297c-.48828-2.08984-1.35547-3.66406-2.59375-4.71875-1.24218-1.05468-2.74218-1.58203-4.5-1.58203-2.65625 0-4.8125.95313-6.47265 2.85547-1.66016 1.90625-2.48828 4.91797-2.48828 9.03906 0 4.17969.79687 7.21875 2.39843 9.10938 1.60157 1.89453 3.69532 2.84375 6.27344 2.84375 2.07031 0 3.79688-.63281 5.1836-1.90625 1.38671-1.26953 2.26562-3.21875 2.63671-5.85938zm0 0" id="c"/><path d="M3.95313 0v-42.94922h5.27343v15.41016c2.46094-2.85157 5.57032-4.27735 9.32032-4.27735 2.30468 0 4.30468.45313 6.0039 1.36329 1.69922.90624 2.91406 2.16406 3.64844 3.76562.73047 1.60156 1.09765 3.92188 1.09765 6.96875V0h-5.27343v-19.71875c0-2.63672-.57032-4.55469-1.71485-5.7539-1.14062-1.20313-2.7578-1.80079-4.84765-1.80079-1.5625 0-3.03125.40235-4.41016 1.21485-1.375.80859-2.35547 1.91015-2.9414 3.29296-.58594 1.38672-.88282 3.3047-.88282 5.7422V0zm0 0" id="d"/><path d="M25.2539-10.01953l5.44922.67578c-.85937 3.1836-2.45312 5.65234-4.77343 7.41016C23.60547-.1758 20.6328.70312 17.02344.70312 12.47266.70313 8.86328-.69921 6.1953-3.5c-2.66406-2.80469-4-6.73438-4-11.79297 0-5.23437 1.35156-9.29687 4.04688-12.1875 2.69531-2.89062 6.1875-4.33594 10.48437-4.33594 4.16016 0 7.5625 1.41797 10.19532 4.2461C29.55859-24.73828 30.8789-20.75 30.8789-15.6172c0 .3125-.01172.78125-.02735 1.40625H7.64844c.19531 3.41797 1.16015 6.03907 2.89844 7.85157 1.73828 1.8164 3.90625 2.72656 6.5039 2.72656 1.9336 0 3.58203-.50781 4.94922-1.52344 1.36719-1.01563 2.45313-2.63672 3.2539-4.86328zM7.9375-18.54688h17.375c-.23438-2.61718-.89844-4.57812-1.99219-5.88671-1.67968-2.03125-3.85937-3.04688-6.53125-3.04688-2.42187 0-4.46093.8086-6.10937 2.4336-1.65235 1.62109-2.5625 3.78906-2.74219 6.5zm0 0" id="e"/><path d="M1.84375-9.28906l5.21875-.82032c.29297 2.08985 1.10547 3.69532 2.44531 4.8047 1.33594 1.11327 3.20703 1.67187 5.60938 1.67187 2.42187 0 4.21875-.49219 5.39062-1.48047 1.17188-.98438 1.75782-2.14453 1.75782-3.47266 0-1.1914-.51563-2.125-1.5547-2.8125-.72265-.46875-2.51562-1.0625-5.39062-1.78515-3.86718-.97657-6.54687-1.82032-8.03906-2.53516-1.4961-.71094-2.6289-1.69922-3.39844-2.95703-.77344-1.26172-1.15625-2.65235-1.15625-4.17578 0-1.38672.3164-2.67188.94922-3.85157.63672-1.18359 1.5-2.16406 2.59375-2.9453.82031-.60548 1.9375-1.1172 3.35547-1.53907 1.41406-.41797 2.9336-.6289 4.55469-.6289 2.4414 0 4.58593.35156 6.42968 1.05468 1.84766.70313 3.21094 1.65625 4.08594 2.85547.8789 1.20313 1.48438 2.8086 1.82032 4.82031l-5.15626.70313c-.23437-1.60157-.91406-2.85157-2.03906-3.75-1.1211-.89844-2.71093-1.34766-4.75781-1.34766-2.42188 0-4.15234.40235-5.1875 1.19922-1.03516.80078-1.55469 1.74219-1.55469 2.8125 0 .6836.21875 1.30078.64844 1.84766.42969.5664 1.10156 1.03515 2.01953 1.40625.52735.1953 2.08203.64453 4.66016 1.34765 3.73047.9961 6.33203 1.8125 7.80468 2.44532 1.47657.63671 2.63282 1.55859 3.47266 2.76953.83985 1.21093 1.26172 2.71484 1.26172 4.51172 0 1.7578-.51563 3.41406-1.53906 4.96484-1.02735 1.55469-2.50782 2.7539-4.4375 3.60547-1.9336.84765-4.125 1.27344-6.5625 1.27344-4.04297 0-7.125-.83985-9.2461-2.51954C3.78516-3.49609 2.4297-5.98437 1.84375-9.28906zm0 0" id="f"/></defs><use y="50" xlink:href="#a"/><use x="43.33" y="50" xlink:href="#b"/><use x="76.699" y="50" xlink:href="#c"/><use x="106.699" y="50" xlink:href="#d"/><use x="140.068" y="50" xlink:href="#e"/><use x="173.438" y="50" xlink:href="#a"/><use x="216.768" y="50" xlink:href="#b"/><use x="250.137" y="50" xlink:href="#f"/><use x="280.137" y="50" xlink:href="#d"/></svg>
